src/static/provided/logos/yaml.svg

<svg width="512px" height="176px" viewBox="0 0 512 176" xmlns="http://www.w3.org/2000/svg" preserveAspectRatio="xMidYMid"><title>yaml</title><path fill="#fff" d="M117.108897.802838745h297.050336V29.7050336l96.340649 144.5109744H1.50011792z"/><path d="M414.962071 0h-298.28284L0 175.018846h512L414.962071 29.4609706V0zm-1.605677 1.60567749V29.9481136l95.64218 143.4650554H2.99982069L117.537613 1.60567749h295.818781z"/><g style="stroke:#000"><path d="M117.108897.802838745h38.53626L40.0363777 174.216008H1.50011792L59.3045075 87.5094232 1.50011792.802838745H40.0363777L78.5726374 58.6072284z"/><path d="M49.6704426 174.216008h38.5362597L165.279222 58.6072284V174.216008h38.53626V.802838745h-38.53626z"/><path d="M211.843869 174.216008h38.53626V58.6072284l38.53626 57.8043896 38.536259-57.8043896V174.216008h38.53626V.802838745h-48.170325L288.916389 58.6072284 250.380129.802838745h-38.53626z"/><path d="M375.622973 174.216008h134.876909l-25.69084-38.53626h-70.649809V.802838745h-38.53626z"/></g></svg>

<svg width="512" height="176" xmlns="http://www.w3.org/2000/svg" preserveAspectRatio="xMidYMid"><path fill="#FFF" d="M117.109.803h297.05v28.902l96.34 144.511H1.5z"/><path d="M414.962 0H116.68L0 175.019h512L414.962 29.46V0zm-1.606 1.606v28.342L509 173.413h-506L117.539 1.606h295.818z"/><path stroke="#000" d="M117.109.803h38.536L40.036 174.216H1.5l57.805-86.707L1.5.803h38.536l38.537 57.804zM49.67 174.216h38.537l77.072-115.609v115.609h38.536V.803H165.28zM211.844 174.216h38.536V58.607l38.536 57.805 38.537-57.805v115.609h38.536V.803h-48.17l-28.903 57.804L250.38.803h-38.536zM375.623 174.216H510.5l-25.691-38.536h-70.65V.803h-38.536z"/></svg>
